X:154
T: Changge yaoyong ge wen hua
N: C0258
O: China,Guangxi, Liuzhou
S: II, 492, 1)]
N: Die gleiche Verzierung in den Takten 4/6/8 jeweils auf der letzten +1.
R: Shange, Bang dong bang]
M: 2/4
L: 1/16
K: C
e2e2dec2 | e2dce2ee | d4c4 | AcGAc2z2 |
A2A2cdA2 | AcAGc4 | d2A2G4 | c4
d2A2 | c4AAG2 | G8

@@@ Tune index: 6155
